X: 5229
T: Broken Chanter, The
R: jig
M: 6/8
K: Dmajor
|:B2 A AAA|B2 G GGG|B2 A AAA|e ~e2 ged|
B2 A AAA|B2 G GGG|e2 g d2 g|B2 e dBG:|
|:g3 f3|efe d3|g3 f3|efg afd|
g3 f3|efe d3|e2 g d2 g|B2 e dBG:|

